src/icons/SVG/64px/Payment_Cards_Monochrome_OneyX4_64px.svg

<svg width="64" height="64" viewBox="0 0 64 64" fill="none" xmlns="http://www.w3.org/2000/svg">
<g id="Square"> </g>
<g id="Icon">
<path id="Subtract" fill-rule="evenodd" clip-rule="evenodd" d="M51.75 32C51.75 42.9076 42.9076 51.75 32 51.75C21.0924 51.75 12.25 42.9076 12.25 32C12.25 21.0924 21.0924 12.25 32 12.25C42.9076 12.25 51.75 21.0924 51.75 32ZM29.7937 38.5201H26.7438V35.4909H20.54V32.9181L24.1295 24.1001H27.5114L24.0257 32.7313H26.7438V29.6191H29.7937V32.7313H31.3291V35.4909H29.7937V38.5201ZM42.9595 27.5L39.2095 32.725L42.8995 38.25H39.237L37.3345 35.3875L35.5845 38.25H32.0845L35.657 32.9075L32.0995 27.5H35.762L37.617 30.3025L39.472 27.5H42.9595Z" fill="black"/>
</g>
</svg>

<svg xmlns="http://www.w3.org/2000/svg" viewBox="0 0 64 64">
  <g id="Square"> </g>
  <path fill-rule="evenodd" d="M51.75 32c0 10.908-8.842 19.75-19.75 19.75S12.25 42.908 12.25 32 21.092 12.25 32 12.25 51.75 21.092 51.75 32zm-21.956 6.52h-3.05v-3.03H20.54v-2.572l3.59-8.818h3.381l-3.485 8.631h2.718V29.62h3.05v3.112h1.535v2.76h-1.535v3.03zM42.959 27.5l-3.75 5.225 3.69 5.525h-3.662l-1.903-2.862-1.75 2.862h-3.5l3.573-5.343L32.1 27.5h3.662l1.855 2.802 1.855-2.802h3.487z"/>
</svg>
